X: 28
T: JIG: Black Rogue
C: C: Trad.; S: Various
C: Set Leaders: Sophie, Anton, Tania
Z: [Unedited]; Mladenski at The Session
N: https://thesession.org/members/26966/sets/99413
R: Jig
M: 6/8
L: 1/8
Q: 3/8=116
K: Amix
d|:cAA BAG|cAA A2 d|cAA BAG|AFD DBd|
cAA BAG|cAA AGF|GFG BAB|1 AFD DBd:|2 AFD D2g||
|:f3 gfg|afd cBA|fef gfg|afd dfg|
agf gfe|fed e2d|cAA BAG|1 AFD D2g:|2 AFD D3||

